X:1449
T:Slängpolska efter Olof Larsson
R:Slängpolska
Z:2007-09-05
O:Olof Larsson, Kumla, Närke
N:Se även [[Musik/352|+]] och [[Musik/2445|+]]
M:3/4
L:1/
K:G
dg gf fe|fa/2f/2 d3c|BA/2B/2 cB AG|B/2A/2G/2F/2 GD B,G,|
dg gf fe|fa/2f/2 d3c|BA/2B/2 cB AG|AF F2 G2::
GB BA A2|Ac cB B2|Bd dc c2|ce ed d2|
d3/2d/2 gg ff/2e/2|fa d3c|BA/2B/2 cB AG|AF F2 G2:|
(:musicend:)
(:music:)
